X: 1
T: Father Dollard's Favourite
M: 6/8
L: 1/8
R: jig
K: Gmaj
|:DFA d2 e|fef dAF|DFA dAB|c2 cBAG|
DFA d2 e|fef a2 a|agf ge^c|ed^c d3:|
|:add gdd|faf d2 d|add gdd|f2 d e2 d|
add gdd|faf d2 a|agf ge^c|ed^c d3:|
